format-text-variant-outline.svg

<svg fill="currentColor" viewBox="0 0 24 24"><path d="M11 3c-.82 0-1.56.5-1.86 1.27l-5.5 14C3.12 19.58 4.09 21 5.5 21h2.25c.84 0 1.58-.5 1.87-1.3l.64-1.7h3.48l.64 1.7c.29.8 1.04 1.3 1.87 1.3h2.25c1.41 0 2.38-1.42 1.86-2.73l-5.5-14C14.56 3.5 13.82 3 13 3m-2 2h2l5.5 14h-2.25l-1.13-3H8.87l-1.12 3H5.5M12 7.67 9.62 14h4.75Z"/></svg>

<svg  viewBox="0 0 24 24" fill="currentColor"><path  d="M11 3C10.18 3 9.44 3.5 9.14 4.27L3.64 18.27C3.12 19.58 4.09 21 5.5 21H7.75C8.59 21 9.33 20.5 9.62 19.7L10.26 18H13.74L14.38 19.7C14.67 20.5 15.42 21 16.25 21H18.5C19.91 21 20.88 19.58 20.36 18.27L14.86 4.27C14.56 3.5 13.82 3 13 3M11 5H13L18.5 19H16.25L15.12 16H8.87L7.75 19H5.5M12 7.67L9.62 14H14.37Z"/></svg>
